img/advantages/4.svg

<svg width="42" height="42" viewBox="0 0 42 42" fill="none" xmlns="http://www.w3.org/2000/svg">
<path d="M34.9423 11.9602C34.9282 11.7368 34.8395 11.5246 34.6905 11.3576C34.5415 11.1905 34.3408 11.0783 34.1204 11.0389C28.714 10.0689 26.4571 9.36759 21.4119 7.08876C21.2825 7.03026 21.142 7 21 7C20.858 7 20.7175 7.03026 20.5881 7.08876C15.5429 9.36759 13.286 10.0689 7.87957 11.0389C7.65923 11.0783 7.45849 11.1905 7.30947 11.3576C7.16046 11.5246 7.07179 11.7368 7.05767 11.9602C6.81703 15.7797 7.33017 19.3385 8.58459 22.538C9.61183 25.1478 11.1321 27.5353 13.0622 29.5701C16.4042 33.1159 19.9525 34.6559 20.6294 34.9284C20.8699 35.0257 21.1388 35.0257 21.3794 34.9284C22.0563 34.6559 25.6045 33.1159 28.9465 29.5701C30.8736 27.5346 32.3908 25.1471 33.4154 22.538C34.6698 19.3385 35.183 15.7797 34.9423 11.9602ZM26.7546 16.6547L19.8293 24.655C19.7403 24.7581 19.6311 24.842 19.5085 24.9014C19.3858 24.9609 19.2523 24.9946 19.1162 25.0006H19.0749C18.8132 25.0007 18.5619 24.8981 18.3749 24.715L15.2998 21.7024C15.206 21.6104 15.1312 21.5009 15.0797 21.3801C15.0282 21.2593 15.001 21.1295 14.9997 20.9981C14.997 20.7329 15.0998 20.4774 15.2854 20.2879C15.4711 20.0985 15.7244 19.9905 15.9897 19.9878C16.2549 19.9851 16.5104 20.0879 16.6999 20.2736L19.0124 22.5418L25.2439 15.3459C25.4174 15.1453 25.6636 15.0219 25.9281 15.0028C26.1927 14.9837 26.454 15.0705 26.6546 15.244C26.8551 15.4176 26.9786 15.6637 26.9977 15.9283C27.0168 16.1928 26.93 16.4541 26.7564 16.6547H26.7546Z" fill="#7171E2"/>
</svg>

<svg width="42" height="42" fill="none" xmlns="http://www.w3.org/2000/svg"><path d="M34.942 11.96a1 1 0 0 0-.822-.921c-5.406-.97-7.663-1.671-12.708-3.95a1 1 0 0 0-.824 0c-5.045 2.279-7.302 2.98-12.708 3.95a1 1 0 0 0-.822.921c-.241 3.82.272 7.378 1.527 10.578a21.843 21.843 0 0 0 4.477 7.032c3.342 3.546 6.89 5.086 7.567 5.358a1 1 0 0 0 .75 0c.677-.272 4.226-1.812 7.567-5.358a21.84 21.84 0 0 0 4.47-7.032c1.254-3.2 1.767-6.758 1.526-10.578Zm-8.187 4.695-6.926 8a1 1 0 0 1-.713.346h-.041a1 1 0 0 1-.7-.286L15.3 21.702a1.002 1.002 0 0 1 .69-1.714 1 1 0 0 1 .71.286l2.312 2.268 6.232-7.196a1 1 0 1 1 1.512 1.309h-.001Z" fill="#7171E2"/></svg>
